X:1
T:Title
%%score { ( 1 3 5 ) | ( 2 4 ) }
L:1/8
M:4/4
K:Ab
V:1 treble nm="Grand Piano"
V:3 treble 
V:5 treble 
V:2 bass 
V:4 bass 
V:1
 z4 z2[Q:1/4=100] [CE]>[CE] | [CA]>[CB] [CA]>[CF] [CE]2 [CF]2 | [DG]6 z2 | B>c B>G F>E F>E | %4
 [Ec]6[K:bass] z2[K:treble] | [CA]>[B,G] [CA]>[DB] [Ec]2 [EB]>[EA] | %6
 [EG]>[=DF] [EG]>[FA] [GB]2 [_G=A]>[=GB] | =d>c B>c B>F G>A |[M:7/8] G- G3- [Ge]2- [Ge-]/e/ | %9
[M:1/4] E>E |[M:4/4] [CA]>[CB] [CA]>[CF] [CE]2 [CF]2 | [DG]6 z2 | B>c B>G F2 E2 | [Ec]6 [CE]>[CE] | %14
 [CA]>[CG] [CA]>[DB] c2 A>A |[M:9/8] [Ad]>[Ac][Ad]- [Ad]/[Ae]/ [Af]2- [Af][Ae]>[DAd] | %16
[M:33/32] z/4 z/4 z/4 z/4 z/4 z/4 z/ A/4-A/4-A/-<A/[Ec]/[Gc]/4-[Gc]/4-[Gc]/4-[Gc]/4-[Gc]/4-[Gc]/4-[Gc]/-<[Gc]/ z/4 z/4 z/4 z/4 z/4 z/ | %17
[M:3/4] z6 |] %18
V:2
 z4 z2 [A,,A,]>[A,,A,] | [A,,E,]>[A,,E,] [A,,E,]>[A,,E,] [A,,A,]2 [A,,E,]2 | %2
 [B,,E,]2 E,2 E,2 [E,G,D]>[E,G,D] | %3
 [E,G,E]>[E,A,E] [E,G,E]>[E,B,D] [E,A,D]>[E,G,D] [E,A,D]>[E,G,D] | A,6 [A,,A,]>[A,,A,] | %5
 [A,,E,]>[A,,E,] [A,,E,]>[A,,E,] [A,,A,]2 [B,,G,]>[C,A,] | %6
 [B,,B,]>[B,,B,] [E,B,]>[E,B,] [E,E]2 [E,E]>[E,E] | %7
 [B,A]>[B,A] [B,A]>[B,A] [B,A]>[K:bass][B,=D] [G,B,E]>[F,A,F] | %8
[M:7/8] [E,B,]-[E,B,]-[E,B,]- [E,B,]- [E,B,]3 |[M:1/4] [E,G,D]>[E,D] | %10
[M:4/4] [A,,E,]>[A,,E,] [A,,E,]>[A,,E,] [A,,E,]2 [A,,E,]2 | [B,,E,]2 E,2 E,2 [E,G,D]>[E,G,D] | %12
 [E,G,E]>[E,A,E] [E,G,E]>[E,B,D] [E,A,D]2 [E,G,D]2 | [A,,A,]>E, F,>G, A,2 [A,,A,]>[A,,A,] | %14
 [A,,E,]>[A,,E,] [A,,E,]>[A,,A,] [A,E]2 [_G,CE]>[G,CE] | %15
[M:9/8] [F,D]>[_G,E][F,D]- [F,D]/[E,C]/ [D,D]2- [D,D][E,C]>F, | %16
[M:33/32] z/4 z/4 z/4 z/4 z/4 z/4 z/4 z/4 z/4 z/4 z/4 z/4 z/4 z/4 z/4 z/4 z/4 z/4 z/4 z/4 z/4 z/4 z/ E,/4-E,/4-E,/4-E,/4-E,/4-E,/-<E,/- | %17
[M:3/4] E,3/4 z/4 z z2 z2 |] %18
V:3
 x8 | x8 | z2 B,2 B,2 E>E | x8 | z z/[K:bass] E,,/ F,,>G,, A,,2 [CE]>[K:treble][CE] | x8 | x8 | %7
 x8 |[M:7/8] B- B3 z z2 |[M:1/4] x2 |[M:4/4] x8 | z2 B,2 B,2 E>E | x8 | x8 | x8 |[M:9/8] x9 | %16
[M:33/32] [EAc]/[CA]3/4 z/4 z/ [Fd]/4-[Fd]/4-[Fd]/-<[Fd]/-[FA-d]/[E-A]/4E/4-E/4-E/4-E/-<E/E/4-E/4-E/4-E/4-E/4-E/-<E/ | %17
[M:3/4] [CEA]6 |] %18
V:4
 x8 | x8 | x8 | x8 | A,,4 z4 | x8 | x8 | x11/2[K:bass] x5/2 |[M:7/8] x7 |[M:1/4] x2 |[M:4/4] x8 | %11
 x8 | x8 | x8 | x8 |[M:9/8] x9 | %16
[M:33/32] E,/E,3/4 z/4 z/ E,/4-E,/4-E,/-<E,/E,/E,/4-E,/4-E,/4-E,/4-E,/-<E,/ z/4 z/4 z/4 z/4 z/4 z/4 z/4 z/ | %17
[M:3/4] A,,6 |] %18
V:5
 x8 | x8 | x8 | x8 | x3/2[K:bass] x6[K:treble] x/ | x8 | x8 | x8 |[M:7/8] x7 |[M:1/4] x2 | %10
[M:4/4] x8 | x8 | x8 | x8 | x8 |[M:9/8] x9 | %16
[M:33/32] z/4 z/4 z/4 z/4 z/4 z/4 z/4 z/4 z/4 z/4 z/4 z/4 z/4 z/4 z/4 z/4 z/4 z/4 z/4 z/4 z/4 z/4 z/ [DB]/4-[DB]/4-[DB]/4-[DB]/4-[DB]/4-[DB]/-<[DB]/- | %17
[M:3/4] [DB]3/4 z/4 z z2 z2 |] %18

